assets/featuresBg4.svg

<svg xmlns="http://www.w3.org/2000/svg" width="570" height="197" fill="none" xmlns:v="https://vecta.io/nano"><g clip-path="url(#A)"><path fill="#ffc856" stroke="#007550" stroke-width="10" d="M5 5h560v187H5z"/><path fill="#007550" d="M0 0h570v197H0z"/><g style="mix-blend-mode:multiply" opacity=".22"><path d="M314 80.5L436 0h134v104.5l-256-24z" fill="#ffc856"/></g><g style="mix-blend-mode:multiply" opacity=".18"><path d="M30.5 62.5L0 19V197L30.5 62.5Z" fill="#ffc856"/></g><g style="mix-blend-mode:multiply" opacity=".2"><path d="M242.5 162L0 197h293l-50.5-35z" fill="#ffc856"/></g><g style="mix-blend-mode:multiply" opacity=".15"><path d="M501.342 25h21.204l-3.534 52.098h-14.136L501.342 25zm10.602 80.712c-3.116 0-5.738-.988-7.866-2.964-2.052-2.052-3.078-4.522-3.078-7.4s1.026-5.282 3.078-7.182c2.052-1.976 4.674-2.964 7.866-2.964s5.814.988 7.866 2.964c2.052 1.9 3.078 4.294 3.078 7.182s-1.064 5.358-3.192 7.4c-2.052 1.976-4.636 2.964-7.752 2.964z" fill="#001e20"/></g><g style="mix-blend-mode:multiply" opacity=".1"><path d="M310.577 113.226L334.9 127.27l-37.738 56.003-16.215-9.362 29.63-60.684zm-40.023 97.41c-3.574-2.064-5.943-4.907-7.107-8.53-1.027-3.657-.607-7.102 1.26-10.337s4.592-5.235 8.174-6.004c3.63-.854 7.278-.224 10.94 1.9s6.03 4.957 7.107 8.53c1.125 3.487.754 6.847-1.113 10.08s-4.685 5.296-8.452 6.184c-3.632.854-7.235.25-10.81-1.814z" fill="#001e20"/></g><g style="mix-blend-mode:overlay" opacity=".1"><path d="M510.884 15.56l48.588 36.252-55.7 23.952 7.102-60.204z" fill="#fff"/></g><g style="mix-blend-mode:overlay" opacity=".1"><path d="M385.45 55.62l-7.1 24.51-17.682-18.396 24.772-6.115z" fill="#fff"/></g><g style="mix-blend-mode:overlay" opacity=".1"><path d="M6.758 129.366l22.097 12.758L6.758 154.88v-25.515z" fill="#fff"/></g><g style="mix-blend-mode:screen" opacity=".2"><path fill="#ffc856" d="M467.824 110.735l58.44 26.1-26.1 58.44-58.44-26.1z"/></g><g style="mix-blend-mode:screen" opacity=".2"><path fill="#ffc856" d="M47-22.566L135.512-62l39.434 88.512-88.512 39.434z"/></g></g><defs><clipPath id="A"><path fill="#fff" d="M0 0h570v197H0z"/></clipPath></defs></svg>

<svg width="570" height="197" viewBox="0 0 570 197" fill="none" xmlns="http://www.w3.org/2000/svg">
<g clip-path="url(#clip0)">
<rect x="5" y="5" width="560" height="187" fill="#FFC856" stroke="#007550" stroke-width="10"/>
<rect width="570" height="197" fill="#007550"/>
<g style="mix-blend-mode:multiply" opacity="0.22">
<path d="M314 80.5L436 0H570V104.5L314 80.5Z" fill="#FFC856"/>
</g>
<g style="mix-blend-mode:multiply" opacity="0.18">
<path d="M30.5 62.5L0 19V197L30.5 62.5Z" fill="#FFC856"/>
</g>
<g style="mix-blend-mode:multiply" opacity="0.2">
<path d="M242.5 162L0 197H293L242.5 162Z" fill="#FFC856"/>
</g>
<g style="mix-blend-mode:multiply" opacity="0.15">
<path d="M501.342 25H522.546L519.012 77.098H504.876L501.342 25ZM511.944 105.712C508.828 105.712 506.206 104.724 504.078 102.748C502.026 100.696 501 98.226 501 95.338C501 92.45 502.026 90.056 504.078 88.156C506.13 86.18 508.752 85.192 511.944 85.192C515.136 85.192 517.758 86.18 519.81 88.156C521.862 90.056 522.888 92.45 522.888 95.338C522.888 98.226 521.824 100.696 519.696 102.748C517.644 104.724 515.06 105.712 511.944 105.712Z" fill="#001E20"/>
</g>
<g style="mix-blend-mode:multiply" opacity="0.1">
<path d="M310.577 113.226L334.9 127.269L297.162 183.272L280.947 173.91L310.577 113.226ZM270.554 210.635C266.98 208.571 264.611 205.728 263.447 202.106C262.42 198.449 262.84 195.004 264.708 191.769C266.575 188.535 269.3 186.534 272.882 185.765C276.513 184.911 280.16 185.541 283.821 187.655C287.483 189.769 289.852 192.612 290.928 196.184C292.053 199.671 291.682 203.031 289.815 206.265C287.948 209.499 285.13 211.561 281.363 212.449C277.731 213.303 274.128 212.698 270.554 210.635Z" fill="#001E20"/>
</g>
<g style="mix-blend-mode:overlay" opacity="0.1">
<path d="M510.884 15.5603L559.472 51.8124L503.782 75.7647L510.884 15.5603Z" fill="white"/>
</g>
<g style="mix-blend-mode:overlay" opacity="0.1">
<path d="M385.45 55.6209L378.36 80.1316L360.678 61.7356L385.45 55.6209Z" fill="white"/>
</g>
<g style="mix-blend-mode:overlay" opacity="0.1">
<path d="M6.75785 129.366L28.8551 142.124L6.75785 154.881L6.75785 129.366Z" fill="white"/>
</g>
<g style="mix-blend-mode:screen" opacity="0.2">
<rect x="467.824" y="110.735" width="64" height="64" transform="rotate(24.0573 467.824 110.735)" fill="#FFC856"/>
</g>
<g style="mix-blend-mode:screen" opacity="0.2">
<rect x="47" y="-22.5662" width="96.8993" height="96.8993" transform="rotate(-24.0138 47 -22.5662)" fill="#FFC856"/>
</g>
</g>
<defs>
<clipPath id="clip0">
<rect width="570" height="197" fill="white"/>
</clipPath>
</defs>
</svg>
